assets/svg/1F62C.svg

<svg xmlns="http://www.w3.org/2000/svg" viewBox="0 0 64 64" enable-background="new 0 0 64 64"><circle fill="#fbb041" cx="32.33" cy="32.32" r="31.674"/><g opacity=".987"><path fill="#e79d3c" d="m14.935 5.764c-8.598 5.661-14.284 15.388-14.284 26.459 0 17.497 14.181 31.672 31.674 31.672.311 0 .616-.038.925-.045-7.259-6.113-27.12-27.512-18.315-58.09"/></g><path fill="#fff" d="m48.813 22.12c0 5.278-2.854 9.549-6.375 9.549-3.523 0-6.38-4.271-6.38-9.549 0-5.275 2.856-9.55 6.38-9.55 3.522 0 6.375 4.275 6.375 9.55"/><ellipse fill="#25333a" cx="42.44" cy="22.12" rx="4.127" ry="5"/><path fill="#fff" d="m28.592 22.12c0 5.278-2.854 9.549-6.375 9.549-3.523 0-6.38-4.271-6.38-9.549 0-5.275 2.856-9.55 6.38-9.55 3.521 0 6.375 4.275 6.375 9.55"/><ellipse fill="#25333a" cx="22.22" cy="22.12" rx="4.128" ry="5"/><path fill="#fff" d="m54 46.5c0 4.143-3.478 7.5-7.768 7.5h-27.964c-4.29 0-7.768-3.357-7.768-7.5l0 0c0-4.143 3.478-7.5 7.768-7.5h27.965c4.289 0 7.767 3.357 7.767 7.5l0 0"/><g fill="#ccc"><path d="m10 45h44v2h-44z"/><path d="m19 37h2v17h-2z"/><path d="m27 37h2v17h-2z"/><path d="m36 37h2v17h-2z"/><path d="m44 37h2v17h-2z"/></g><path fill="#a5692d" d="m46.23 55h-27.964c-5.111 0-9.268-4.04-9.268-9s4.157-9 9.268-9h27.965c5.11 0 9.268 4.04 9.268 9s-4.158 9-9.269 9m-27.964-15c-3.456 0-6.268 2.691-6.268 6s2.812 6 6.268 6h27.965c3.456 0 6.268-2.691 6.268-6s-2.812-6-6.268-6h-27.965"/></svg>

<?xml version="1.0" encoding="UTF-8" standalone="no"?>
<!-- Generator: Adobe Illustrator 16.0.0, SVG Export Plug-In . SVG Version: 6.00 Build 0)  -->

<svg
   xmlns:dc="http://purl.org/dc/elements/1.1/"
   xmlns:cc="http://creativecommons.org/ns#"
   xmlns:rdf="http://www.w3.org/1999/02/22-rdf-syntax-ns#"
   xmlns:svg="http://www.w3.org/2000/svg"
   xmlns="http://www.w3.org/2000/svg"
   xmlns:sodipodi="http://sodipodi.sourceforge.net/DTD/sodipodi-0.dtd"
   xmlns:inkscape="http://www.inkscape.org/namespaces/inkscape"
   version="1.1"
   id="Layer_1"
   x="0px"
   y="0px"
   width="64px"
   height="64px"
   viewBox="0 0 64 64"
   enable-background="new 0 0 64 64"
   xml:space="preserve"
   inkscape:version="0.48.5 r10040"
   sodipodi:docname="1F62C.svg"
   inkscape:export-filename="D:\TESTINGEMOJI\SVGTEST\1F62C.png"
   inkscape:export-xdpi="90"
   inkscape:export-ydpi="90"><metadata
   id="metadata4649"><rdf:RDF><cc:Work
       rdf:about=""><dc:format>image/svg+xml</dc:format><dc:type
         rdf:resource="http://purl.org/dc/dcmitype/StillImage" /><dc:title></dc:title></cc:Work></rdf:RDF></metadata><defs
   id="defs4647" /><sodipodi:namedview
   pagecolor="#ffffff"
   bordercolor="#666666"
   borderopacity="1"
   objecttolerance="10"
   gridtolerance="10"
   guidetolerance="10"
   inkscape:pageopacity="0"
   inkscape:pageshadow="2"
   inkscape:window-width="640"
   inkscape:window-height="480"
   id="namedview4645"
   showgrid="false"
   inkscape:zoom="3.6875"
   inkscape:cx="32"
   inkscape:cy="32"
   inkscape:window-x="477"
   inkscape:window-y="280"
   inkscape:window-maximized="0"
   inkscape:current-layer="Layer_1" />
<g
   id="g4585">
	<g
   id="g4587">
		<g
   id="g4589">
			<circle
   fill="#FBB041"
   cx="32.326"
   cy="32.324"
   r="31.674"
   id="circle4591" />
		</g>
	</g>
	<g
   opacity="0.9866"
   id="g4593">
		<g
   id="g4595">
			<g
   id="g4597">
				<path
   fill="#E79D3C"
   d="M14.935,5.764C6.337,11.425,0.651,21.152,0.651,32.223c0,17.497,14.181,31.672,31.674,31.672      c0.311,0,0.616-0.038,0.925-0.045C25.991,57.737,6.135,36.338,14.935,5.764z"
   id="path4599" />
			</g>
		</g>
	</g>
	<g
   id="g4601">
		<g
   id="g4603">
			<g
   id="g4605">
				<g
   id="g4607">
					<path
   fill="#FFFFFF"
   d="M48.813,22.122c0,5.278-2.854,9.549-6.375,9.549c-3.523,0-6.38-4.271-6.38-9.549       c0-5.275,2.856-9.55,6.38-9.55C45.96,12.572,48.813,16.847,48.813,22.122z"
   id="path4609" />
				</g>
			</g>
			<g
   id="g4611">
				<g
   id="g4613">
					<ellipse
   fill="#25333A"
   cx="42.439"
   cy="22.122"
   rx="4.127"
   ry="5.003"
   id="ellipse4615" />
				</g>
			</g>
		</g>
		<g
   id="g4617">
			<g
   id="g4619">
				<g
   id="g4621">
					<path
   fill="#FFFFFF"
   d="M28.592,22.122c0,5.278-2.854,9.549-6.375,9.549c-3.523,0-6.38-4.271-6.38-9.549       c0-5.275,2.856-9.55,6.38-9.55C25.738,12.572,28.592,16.847,28.592,22.122z"
   id="path4623" />
				</g>
			</g>
			<g
   id="g4625">
				<g
   id="g4627">
					<ellipse
   fill="#25333A"
   cx="22.216"
   cy="22.122"
   rx="4.128"
   ry="5.003"
   id="ellipse4629" />
				</g>
			</g>
		</g>
	</g>
	<path
   fill="#FFFFFF"
   d="M54,46.5c0,4.143-3.478,7.5-7.768,7.5H18.268c-4.29,0-7.768-3.357-7.768-7.5l0,0   c0-4.143,3.478-7.5,7.768-7.5h27.965C50.522,39,54,42.357,54,46.5L54,46.5z"
   id="path4631" />
	<rect
   x="10"
   y="45"
   fill="#CCCCCC"
   width="44"
   height="2"
   id="rect4633" />
	<rect
   x="19"
   y="37"
   fill="#CCCCCC"
   width="2"
   height="17"
   id="rect4635" />
	<rect
   x="27"
   y="37"
   fill="#CCCCCC"
   width="2"
   height="17"
   id="rect4637" />
	<rect
   x="36"
   y="37"
   fill="#CCCCCC"
   width="2"
   height="17"
   id="rect4639" />
	<rect
   x="44"
   y="37"
   fill="#CCCCCC"
   width="2"
   height="17"
   id="rect4641" />
	<path
   fill="#A5692D"
   d="M46.232,55H18.268C13.157,55,9,50.963,9,46s4.157-9,9.268-9h27.965c5.11,0,9.268,4.037,9.268,9   S51.343,55,46.232,55z M18.268,40C14.812,40,12,42.691,12,46s2.812,6,6.268,6h27.965c3.456,0,6.268-2.691,6.268-6s-2.812-6-6.268-6   H18.268z"
   id="path4643" />
</g>
</svg>
